src/images/svg/symbols/markets-stocks-and-indices/american-stocks/stocks-amd.svg

<svg width="32" height="32" viewBox="0 0 32 32" fill="none" xmlns="http://www.w3.org/2000/svg">
<path d="M0 16C0 7.16344 7.16344 0 16 0C24.8366 0 32 7.16344 32 16C32 24.8366 24.8366 32 16 32C7.16344 32 0 24.8366 0 16Z" fill="#221F20"/>
<path d="M22.5874 12.834H29V19.1655L27.034 17.1995V14.6532H24.4471L22.5874 12.834Z" fill="white"/>
<path d="M22.6531 16.4906V18.9991H25.0903L26.7906 17.2023H24.4513V14.8476L22.6531 16.4906Z" fill="white"/>
<path fill-rule="evenodd" clip-rule="evenodd" d="M7.69409 18.6468H9.14553L6.74325 13.2395H5.18135L3 18.6468H4.42767L4.83177 17.5771H7.25083L7.69409 18.6468ZM5.18834 16.6304L5.98118 14.533L6.85371 16.6304H5.18834Z" fill="white"/>
<path d="M14.3542 13.2395H15.5274V18.6468H14.1794V15.2699L12.7196 16.966H12.5141L11.0556 15.2699V18.6468H9.70767V13.2395H10.8808L12.6175 15.2447L14.3542 13.2395Z" fill="white"/>
<path fill-rule="evenodd" clip-rule="evenodd" d="M21.7582 15.9523C21.7582 14.4687 20.7445 13.2395 18.7701 13.2395H16.3818V18.6468H18.619C20.7794 18.6468 21.7582 17.5058 21.7582 15.9523ZM18.6078 17.6568H17.7269V14.2309H18.5925C19.8677 14.2309 20.3683 15.0154 20.3683 15.9439C20.3683 16.7367 19.9628 17.6568 18.6078 17.6568Z" fill="white"/>
</svg>

<svg width="32" height="32" fill="none" xmlns="http://www.w3.org/2000/svg"><path d="M0 16C0 7.163 7.163 0 16 0s16 7.163 16 16-7.163 16-16 16S0 24.837 0 16Z" fill="#221F20"/><path d="M22.587 12.834H29v6.332L27.034 17.2v-2.547h-2.587l-1.86-1.819ZM22.653 16.49V19h2.437l1.7-1.798h-2.339v-2.354l-1.798 1.643Z" fill="#fff"/><path fill-rule="evenodd" clip-rule="evenodd" d="M7.694 18.647h1.452L6.743 13.24H5.181L3 18.646h1.428l.404-1.07H7.25l.443 1.07ZM5.188 16.63l.793-2.097.873 2.097H5.188Z" fill="#fff"/><path d="M14.354 13.24h1.173v5.407H14.18V15.27l-1.46 1.696h-.205l-1.458-1.696v3.377H9.708V13.24h1.173l1.736 2.005 1.737-2.005Z" fill="#fff"/><path fill-rule="evenodd" clip-rule="evenodd" d="M21.758 15.952c0-1.483-1.014-2.713-2.988-2.713h-2.388v5.408h2.237c2.16 0 3.14-1.141 3.14-2.695Zm-3.15 1.705h-.881V14.23h.866c1.275 0 1.775.784 1.775 1.713 0 .793-.405 1.713-1.76 1.713Z" fill="#fff"/></svg>
